packages/components/icon/src/assets/icons/unlocked.svg

<svg width="24" height="24" viewBox="0 0 24 24" fill="none" xmlns="http://www.w3.org/2000/svg">
<path fill-rule="evenodd" clip-rule="evenodd" d="M7.25 3C8.20455 3 9.08316 3.23502 9.88585 3.70506C10.6885 4.17511 11.3249 4.81146 11.7949 5.61415C12.265 6.41684 12.5 7.29545 12.5 8.25V10.6364H19.8977C20.1002 10.6364 20.2701 10.7051 20.4075 10.8425C20.5449 10.9799 20.6136 11.1498 20.6136 11.3523V19.4659C20.6136 19.6684 20.5449 19.8383 20.4075 19.9757C20.2701 20.1131 20.1002 20.1818 19.8977 20.1818H8.92045C8.73244 20.1818 8.56612 20.1131 8.42149 19.9757C8.27686 19.8383 8.20455 19.6684 8.20455 19.4659V11.3523C8.20455 11.1498 8.27686 10.9799 8.42149 10.8425C8.56612 10.7051 8.73244 10.6364 8.92045 10.6364H10.1136V8.25C10.1136 7.72934 9.98709 7.24845 9.73399 6.80733C9.48089 6.36622 9.13378 6.01911 8.69267 5.76601C8.25155 5.51291 7.77066 5.38636 7.25 5.38636C6.72934 5.38636 6.24845 5.51291 5.80733 5.76601C5.36622 6.01911 5.01911 6.36622 4.76601 6.80733C4.51291 7.24845 4.38636 7.72934 4.38636 8.25V10.6364H2V8.25C2 7.29545 2.23502 6.41684 2.70506 5.61415C3.17511 4.81146 3.81146 4.17511 4.61415 3.70506C5.41684 3.23502 6.29545 3 7.25 3ZM14.4091 12.5455C14.0186 12.5455 13.6823 12.6865 13.4003 12.9685C13.1183 13.2505 12.9773 13.5868 12.9773 13.9773V16.8409C12.9773 17.2314 13.1183 17.5677 13.4003 17.8497C13.6823 18.1317 14.0186 18.2727 14.4091 18.2727C14.7996 18.2727 15.1358 18.1317 15.4179 17.8497C15.6999 17.5677 15.8409 17.2314 15.8409 16.8409V13.9773C15.8409 13.5868 15.6999 13.2505 15.4179 12.9685C15.1358 12.6865 14.7996 12.5455 14.4091 12.5455Z" fill="currentColor"/>
</svg>

<svg viewBox="0 0 24 24" fill="none" xmlns="http://www.w3.org/2000/svg"><path fill-rule="evenodd" clip-rule="evenodd" d="M7.25 3c.955 0 1.833.235 2.636.705a5.253 5.253 0 0 1 1.909 1.91c.47.802.705 1.68.705 2.635v2.386h7.398c.202 0 .372.07.51.207a.692.692 0 0 1 .206.51v8.113a.692.692 0 0 1-.207.51.692.692 0 0 1-.51.206H8.92a.703.703 0 0 1-.499-.206.675.675 0 0 1-.216-.51v-8.114c0-.202.072-.372.216-.51a.703.703 0 0 1 .5-.206h1.193V8.25a2.849 2.849 0 0 0-1.421-2.484 2.849 2.849 0 0 0-1.443-.38 2.849 2.849 0 0 0-2.484 1.421 2.85 2.85 0 0 0-.38 1.443v2.386H2V8.25c0-.955.235-1.833.705-2.636a5.253 5.253 0 0 1 1.91-1.909A5.123 5.123 0 0 1 7.25 3Zm7.16 9.546c-.391 0-.728.14-1.01.423a1.377 1.377 0 0 0-.423 1.008v2.864c0 .39.141.727.423 1.009a1.38 1.38 0 0 0 1.01.423c.39 0 .726-.141 1.008-.423a1.38 1.38 0 0 0 .423-1.01v-2.863c0-.39-.141-.726-.423-1.008a1.377 1.377 0 0 0-1.009-.423Z" fill="currentColor"/></svg>
